X:94
T:Have a Drink with Me
R:jig
Z:Transcribed by Dave Marshall
M:6/8
K:G
|: BAG E2D |EGD EGA | BAG E2D | EAG ABc |
BAG E2D |EGD EGA | BAG E2D | EGF G3 :|
|:GBd e2d | ege B2A | GBd edB | caa a3 |
bag age | ged ege | dBG ABc | BGF G3 :|
